X:14123
T:Reel de Rimouski
M:2/4
R:reel
L:1/16
Z:added by Alf warnock@magma.ca from a photocopy
Z:repertoire de Jos Bouchard, notation de Marcel Ducharme.
K:G
DEF|"G"G2Bd gdBG|"D7"ABcA FDEF|"G"GFGB dBGB|"D7"Agfe dcBA|
"G"G2Bd gdBG|"D7"ABcA FDEF|"G"GFGB dBGB|"D7"ABAF "G"GDEF:|
K:C
"C"e2ef edce|g2ga gece|gece gecA|"G7"B2_B2 A4|1 "G7"f2fg fefg|
b2bb bg^fg|a2ab ag^fg|"G7"ag^fg "C"e2c2:|2 "F"aa^ga b2a2|"C"gg^fg a2g2|"Dm"fedf "G7" a2B2|"C"c8|
K:F
|"F"aaa2 ggg2|fff2 c2Ac|f2fg fefa|"Gm"g2d2 d4||1 "C7"bbb2 aaa2|
ggg2 e2cd|e2ee edce|"F"dc=Bc A2F2:|2 "Gm"fefg fefg|"F"afcB Acfa|"Gm"b2bb "C7" bgeg|"F"fefg f2:|
